Yaru++/apps/scalable/calculator-app.svg

<svg enable-background="new" height="256" viewBox="0 0 256 256" width="256" xmlns="http://www.w3.org/2000/svg" xmlns:xlink="http://www.w3.org/1999/xlink">
  <linearGradient id="linearGradient4358" gradientUnits="userSpaceOnUse" x1="88" x2="488" y1="88" y2="488">
    <stop offset="0" stop-opacity=".588235"/>
    <stop offset="1" stop-opacity=".205556"/>
  </linearGradient>
  <clipPath id="clipPath983-2-3">
    <path d="m115.03125 44c-72.64865 0-83.03125 10.356615-83.03125 82.9375v58.125c0 72.58059 10.3826 82.9375 83.03125 82.9375h36.96875v-224z"/>
  </clipPath>
  <filter id="filter973-6" color-interpolation-filters="sRGB" height="1.147429" width="1.2752" x="-.1376" y="-.073714">
    <feGaussianBlur stdDeviation="6.88"/>
  </filter>
  <filter id="filter967-5" color-interpolation-filters="sRGB" height="1.018429" width="1.0344" x="-.0172" y="-.009214">
    <feGaussianBlur stdDeviation=".86"/>
  </filter>
  <linearGradient id="linearGradient943-5" gradientTransform="matrix(1.1666667 0 0 1.2857144 -49.449823 -71.396665)" gradientUnits="userSpaceOnUse" x1="216" x2="216" y1="28" y2="284">
    <stop offset="0" stop-color="#f9af18"/>
    <stop offset="1" stop-color="#fecf3b"/>
  </linearGradient>
  <filter id="filter4380-2" color-interpolation-filters="sRGB" height="1.087725" width="1.105998" x="-.052999" y="-.043863">
    <feGaussianBlur stdDeviation="8.4801079"/>
  </filter>
  <filter id="filter4346-0" color-interpolation-filters="sRGB" height="1.021931" width="1.0265" x="-.01325" y="-.010966">
    <feGaussianBlur stdDeviation="2.120027"/>
  </filter>
  <path d="m141.84323 74c-70.59344 0-78.18921 7.250835-77.84323 77.98706v146.01294 146.01294c-.34598 70.73623 7.24979 77.98706 77.84323 77.98706h292.31354c70.59344 0 79.78033-7.27652 77.84323-77.98706v-146.01294-146.01294c0-70.737067-7.24979-77.98706-77.84323-77.98706z" filter="url(#filter4346-0)" opacity=".1" transform="matrix(.5 0 0 .5 -16.116488 -18.825535)"/>
  <path d="m141.84323 74c-70.59344 0-78.18921 7.250835-77.84323 77.98706v146.01294 146.01294c-.34598 70.73623 7.24979 77.98706 77.84323 77.98706h292.31354c70.59344 0 79.78033-7.27652 77.84323-77.98706v-146.01294-146.01294c0-70.737067-7.24979-77.98706-77.84323-77.98706z" fill="url(#linearGradient4358)" filter="url(#filter4380-2)" opacity=".3" transform="matrix(.5 0 0 .5 -16.116488 -18.825235)"/>
  <path d="m53.695112 15.174465c-36.098811 0-39.983003 3.690159-39.806081 39.689839v74.310166 74.31016c-.176922 35.99969 3.70727 39.68984 39.806081 39.68984h148.387318c36.09881 0 40.77464-3.70276 39.80608-39.68984v-74.31016-74.310166c0-36.00011-3.70727-39.689839-39.80608-39.689839z" opacity=".1"/>
  <path d="m54.805134 241.17447c-35.29673 0-39.09461-3.62542-38.92162-38.99353v-73.00647-73.006478c-.17299-35.36812 3.62489-38.993529 38.92162-38.993529h146.156756c35.29671 0 38.92161 3.624999 38.92161 38.993529v73.006478 73.00647c0 35.36853-3.6249 38.99353-38.92161 38.99353z" fill="#4d4d4d"/>
  <path d="m71.883512 57.174766v24.000001h-24v8h24v24.000003h8.000003v-24.000003h24.000005v-8h-24.000005v-24.000001z" fill="#f2f2f2"/>
  <path d="m103.88352 177.17477v-8h-55.999988v8z" fill="#f2f2f2"/>
  <path d="m127.88351 17.174767v224.000003h73.07812c35.29671 0 38.92188-3.62561 38.92188-38.99414v-73.00586-73.005863c0-35.36853-3.62517-38.99414-38.92188-38.99414z" fill="url(#linearGradient943-5)"/>
  <path d="m151.88351 113.17477v8h56v-8zm0 24v8h56v-8z" fill="#fff"/>
  <path d="m15.883512 129.17477v73.00586c-.17299 35.36811 3.625145 38.99414 38.921875 38.99414h73.078123v-112z" fill="#fff" opacity=".1"/>
  <g clip-path="url(#clipPath983-2-3)" enable-background="new" transform="translate(-24.116488 -26.825235)">
    <path d="m152 44v224h36.96875c72.64865 0 83.03125-10.35691 83.03125-82.9375v-58.125c0-72.580885-10.3826-82.9375-83.03125-82.9375z" filter="url(#filter973-6)" opacity=".4"/>
    <path d="m152 44v224h36.96875c72.64865 0 83.03125-10.35691 83.03125-82.9375v-58.125c0-72.580885-10.3826-82.9375-83.03125-82.9375z" filter="url(#filter967-5)" opacity=".1"/>
    <path d="m152 44v224h36.96875c72.64865 0 83.03125-10.35691 83.03125-82.9375v-58.125c0-72.580885-10.3826-82.9375-83.03125-82.9375z" filter="url(#filter967-5)" opacity=".1"/>
  </g>
  <path d="m54.805392 17.174465c-35.296728 0-39.09487 3.626029-38.92188 38.994139v2c-.17299-35.36811 3.625152-38.99414 38.92188-38.99414h146.156238c35.29673 0 38.92188 3.62561 38.92188 38.99414v-2c0-35.36853-3.62515-38.994139-38.92188-38.994139z" fill="#fff" opacity=".3"/>
  <path d="m54.810792 241.17447c-35.296731 0-39.094875-3.62603-38.921885-38.99414v-2c-.17299 35.36811 3.625154 38.99414 38.921885 38.99414h146.156238c35.29673 0 38.92188-3.62561 38.92188-38.99414v2c0 35.36853-3.62515 38.99414-38.92188 38.99414z" opacity=".2"/>
</svg>

<?xml version="1.0" encoding="UTF-8" standalone="no"?>
<svg
   xmlns:dc="http://purl.org/dc/elements/1.1/"
   xmlns:cc="http://creativecommons.org/ns#"
   xmlns:rdf="http://www.w3.org/1999/02/22-rdf-syntax-ns#"
   xmlns:svg="http://www.w3.org/2000/svg"
   xmlns="http://www.w3.org/2000/svg"
   xmlns:xlink="http://www.w3.org/1999/xlink"
   xmlns:sodipodi="http://sodipodi.sourceforge.net/DTD/sodipodi-0.dtd"
   xmlns:inkscape="http://www.inkscape.org/namespaces/inkscape"
   width="256"
   height="256"
   version="1.0"
   viewBox="0 0 256 256"
   style="enable-background:new"
   id="svg52"
   sodipodi:docname="calculator-app.svg"
   inkscape:version="0.92.3 (2405546, 2018-03-11)">
  <metadata
     id="metadata56">
    <rdf:RDF>
      <cc:Work
         rdf:about="">
        <dc:format>image/svg+xml</dc:format>
        <dc:type
           rdf:resource="http://purl.org/dc/dcmitype/StillImage" />
      </cc:Work>
    </rdf:RDF>
  </metadata>
  <sodipodi:namedview
     pagecolor="#ffffff"
     bordercolor="#666666"
     borderopacity="1"
     objecttolerance="10"
     gridtolerance="10"
     guidetolerance="10"
     inkscape:pageopacity="0"
     inkscape:pageshadow="2"
     inkscape:window-width="1920"
     inkscape:window-height="1009"
     id="namedview54"
     showgrid="false"
     inkscape:zoom="0.921875"
     inkscape:cx="128"
     inkscape:cy="128"
     inkscape:window-x="0"
     inkscape:window-y="34"
     inkscape:window-maximized="1"
     inkscape:current-layer="svg52" />
  <defs
     id="defs25">
    <linearGradient
       id="linearGradient897">
      <stop
         id="stop893"
         offset="0"
         style="stop-opacity:0.44999999" />
      <stop
         id="stop895"
         offset="1"
         style="stop-opacity:0" />
    </linearGradient>
    <clipPath
       id="clipPath983-2"
       clipPathUnits="userSpaceOnUse">
      <path
         d="M 115.03125,44 C 42.3826,44 32,54.356615 32,126.9375 v 58.125 C 32,257.64309 42.3826,268 115.03125,268 H 152 V 44 Z"
         style="fill:#4d4d4d"
         id="path5" />
    </clipPath>
    <filter
       id="filter973"
       width="1.275"
       height="1.147"
       x="-.14"
       y="-.07"
       style="color-interpolation-filters:sRGB">
      <feGaussianBlur
         id="feGaussianBlur975"
         stdDeviation="6.88" />
    </filter>
    <filter
       id="filter967"
       width="1.034"
       height="1.018"
       x="-.02"
       y="-.01"
       style="color-interpolation-filters:sRGB">
      <feGaussianBlur
         id="feGaussianBlur969"
         stdDeviation=".86" />
    </filter>
    <linearGradient
       id="linearGradient943"
       x1="216"
       x2="216"
       y1="28"
       y2="284"
       gradientTransform="matrix(1.1666667,0,0,1.2857144,-47.449827,-73.396668)"
       gradientUnits="userSpaceOnUse"
       xlink:href="#linearGradient4273-8" />
    <linearGradient
       id="linearGradient4273-8">
      <stop
         id="stop4275-0"
         offset="0"
         style="stop-color:#f9af18" />
      <stop
         id="stop4277-4"
         offset="1"
         style="stop-color:#fecf3b" />
    </linearGradient>
    <linearGradient
       id="linearGradient4358"
       x1="88"
       x2="488"
       y1="88"
       y2="488"
       gradientUnits="userSpaceOnUse"
       xlink:href="#linearGradient4360" />
    <linearGradient
       id="linearGradient4360">
      <stop
         style="stop-color:#000000;stop-opacity:0.58823532"
         id="stop4362"
         offset="0" />
      <stop
         style="stop-color:#000000;stop-opacity:0.20555556"
         id="stop4366"
         offset="1" />
    </linearGradient>
    <filter
       id="filter4380"
       width="1.106"
       height="1.088"
       x="-.05"
       y="-.04"
       style="color-interpolation-filters:sRGB">
      <feGaussianBlur
         id="feGaussianBlur4382"
         stdDeviation="8.48" />
    </filter>
    <filter
       id="filter4346"
       width="1.026"
       height="1.022"
       x="-.01"
       y="-.01"
       style="color-interpolation-filters:sRGB">
      <feGaussianBlur
         id="feGaussianBlur4348"
         stdDeviation="2.12" />
    </filter>
    <linearGradient
       id="linearGradient891"
       x1="113.235"
       x2="125.603"
       y1="127.127"
       y2="126.905"
       gradientTransform="translate(-243.1187)"
       gradientUnits="userSpaceOnUse"
       xlink:href="#linearGradient897" />
    <clipPath
       clipPathUnits="userSpaceOnUse"
       id="clipPath983-2-3">
      <path
         id="path985-5"
         d="M 115.03125,44 C 42.3826,44 32,54.356615 32,126.9375 v 58.125 C 32,257.64309 42.3826,268 115.03125,268 H 152 V 44 Z"
         style="opacity:1;fill:#4d4d4d;fill-opacity:1;stroke:none;stroke-width:2;stroke-linecap:round;stroke-linejoin:round;stroke-miterlimit:4;stroke-dasharray:none;stroke-dashoffset:0;stroke-opacity:1"
         inkscape:connector-curvature="0" />
    </clipPath>
    <filter
       inkscape:collect="always"
       style="color-interpolation-filters:sRGB"
       id="filter973-6"
       x="-0.1376"
       width="1.2752"
       y="-0.073714286"
       height="1.1474286">
      <feGaussianBlur
         inkscape:collect="always"
         stdDeviation="6.88"
         id="feGaussianBlur975-7" />
    </filter>
    <filter
       inkscape:collect="always"
       style="color-interpolation-filters:sRGB"
       id="filter967-5"
       x="-0.017200001"
       width="1.0344"
       y="-0.0092142858"
       height="1.0184286">
      <feGaussianBlur
         inkscape:collect="always"
         stdDeviation="0.86"
         id="feGaussianBlur969-3" />
    </filter>
    <linearGradient
       inkscape:collect="always"
       xlink:href="#linearGradient4273-8"
       id="linearGradient943-5"
       x1="216"
       y1="28"
       x2="216"
       y2="284"
       gradientUnits="userSpaceOnUse"
       gradientTransform="matrix(1.1666667,0,0,1.2857144,-49.449823,-71.396665)" />
    <filter
       inkscape:collect="always"
       style="color-interpolation-filters:sRGB"
       id="filter4380-2"
       x="-0.052999184"
       width="1.1059984"
       y="-0.043862626"
       height="1.0877253">
      <feGaussianBlur
         inkscape:collect="always"
         stdDeviation="8.4801079"
         id="feGaussianBlur4382-7" />
    </filter>
    <filter
       inkscape:collect="always"
       style="color-interpolation-filters:sRGB"
       id="filter4346-0"
       x="-0.013249796"
       width="1.0264996"
       y="-0.010965657"
       height="1.0219313">
      <feGaussianBlur
         inkscape:collect="always"
         stdDeviation="2.120027"
         id="feGaussianBlur4348-9" />
    </filter>
  </defs>
  <title
     id="title4162">
  Adwaita Icon Template
 </title>
  <path
     style="color:#000000;display:inline;overflow:visible;visibility:visible;opacity:0.1;fill:#000000;fill-opacity:1;fill-rule:nonzero;stroke:none;stroke-width:2;marker:none;filter:url(#filter4346-0);enable-background:accumulate"
     d="M 141.84323,74 C 71.24979,74 63.65402,81.250835 64,151.98706 V 298 444.01294 C 63.65402,514.74917 71.24979,522 141.84323,522 H 434.15677 C 504.75021,522 513.9371,514.72348 512,444.01294 V 298 151.98706 C 512,81.249993 504.75021,74 434.15677,74 Z"
     id="rect4158-9"
     inkscape:connector-curvature="0"
     sodipodi:nodetypes="scccssscsss"
     transform="matrix(0.5,0,0,0.5,-16.116488,-18.825535)" />
  <path
     sodipodi:nodetypes="scccssscsss"
     inkscape:connector-curvature="0"
     id="path4350"
     d="M 141.84323,74 C 71.24979,74 63.65402,81.250835 64,151.98706 V 298 444.01294 C 63.65402,514.74917 71.24979,522 141.84323,522 H 434.15677 C 504.75021,522 513.9371,514.72348 512,444.01294 V 298 151.98706 C 512,81.249993 504.75021,74 434.15677,74 Z"
     style="color:#000000;display:inline;overflow:visible;visibility:visible;opacity:0.3;fill:url(#linearGradient4358);fill-opacity:1;fill-rule:nonzero;stroke:none;stroke-width:2;marker:none;filter:url(#filter4380-2);enable-background:accumulate"
     transform="matrix(0.5,0,0,0.5,-16.116488,-18.825235)" />
  <path
     style="color:#000000;display:inline;overflow:visible;visibility:visible;opacity:0.1;fill:#000000;fill-opacity:1;fill-rule:nonzero;stroke:none;stroke-width:1.02028775;marker:none;enable-background:accumulate"
     d="m 53.695112,15.174465 c -36.098811,0 -39.983003,3.690159 -39.806081,39.689839 v 74.310166 74.31016 c -0.176922,35.99969 3.70727,39.68984 39.806081,39.68984 H 202.08243 c 36.09881,0 40.77464,-3.70276 39.80608,-39.68984 V 129.17447 54.864304 c 0,-36.00011 -3.70727,-39.689839 -39.80608,-39.689839 z"
     id="rect4158-7"
     inkscape:connector-curvature="0"
     sodipodi:nodetypes="scccssscsss" />
  <path
     style="color:#000000;display:inline;overflow:visible;visibility:visible;fill:#4d4d4d;fill-opacity:1;fill-rule:nonzero;stroke:none;stroke-width:1;marker:none;enable-background:accumulate"
     d="m 54.805134,241.17447 c -35.29673,0 -39.09461,-3.62542 -38.92162,-38.99353 V 129.17447 56.167992 c -0.17299,-35.36812 3.62489,-38.993529 38.92162,-38.993529 H 200.96189 c 35.29671,0 38.92161,3.624999 38.92161,38.993529 v 73.006478 73.00647 c 0,35.36853 -3.6249,38.99353 -38.92161,38.99353 z"
     id="rect4158"
     inkscape:connector-curvature="0"
     sodipodi:nodetypes="scccssscsss" />
  <path
     style="color:#000000;display:inline;overflow:visible;visibility:visible;fill:#f2f2f2;fill-opacity:1;fill-rule:nonzero;stroke:none;stroke-width:40;marker:none;enable-background:accumulate"
     d="m 71.883512,57.174766 v 24.000001 h -24 v 8 h 24 v 24.000003 h 8.000003 V 89.174767 h 24.000005 v -8 H 79.883515 V 57.174766 Z"
     id="rect4125"
     inkscape:connector-curvature="0"
     sodipodi:nodetypes="ccccccccccccc" />
  <path
     style="color:#000000;display:inline;overflow:visible;visibility:visible;fill:#f2f2f2;fill-opacity:1;fill-rule:nonzero;stroke:none;stroke-width:40;marker:none;enable-background:accumulate"
     d="m 103.88352,177.17477 v -8 H 47.883532 v 8 z"
     id="rect4129"
     inkscape:connector-curvature="0"
     sodipodi:nodetypes="ccccc" />
  <path
     inkscape:connector-curvature="0"
     style="display:inline;opacity:1;fill:url(#linearGradient943-5);fill-opacity:1;stroke:none;stroke-width:1.99999988;stroke-linecap:round;stroke-linejoin:round;stroke-miterlimit:4;stroke-dasharray:none;stroke-dashoffset:0;stroke-opacity:1;enable-background:new"
     d="M 127.88351,17.174767 V 241.17477 h 73.07812 c 35.29671,0 38.92188,-3.62561 38.92188,-38.99414 V 129.17477 56.168907 c 0,-35.36853 -3.62517,-38.99414 -38.92188,-38.99414 z"
     id="path932" />
  <path
     style="color:#000000;display:inline;overflow:visible;visibility:visible;fill:#ffffff;fill-opacity:1;fill-rule:nonzero;stroke:none;stroke-width:40;marker:none;enable-background:accumulate"
     d="m 151.88351,113.17477 v 8 h 56 v -8 z m 0,24 v 8 h 56 v -8 z"
     id="path4242"
     inkscape:connector-curvature="0"
     sodipodi:nodetypes="cccccccccc" />
  <path
     inkscape:connector-curvature="0"
     style="display:inline;opacity:0.1;fill:#ffffff;fill-opacity:1;stroke:none;stroke-width:2;stroke-linecap:round;stroke-linejoin:round;stroke-miterlimit:4;stroke-dasharray:none;stroke-dashoffset:0;stroke-opacity:1;enable-background:new"
     d="m 15.883512,129.17477 v 73.00586 c -0.17299,35.36811 3.625145,38.99414 38.921875,38.99414 h 73.078123 v -112 z"
     id="path949" />
  <g
     transform="translate(-24.116488,-26.825235)"
     style="display:inline;enable-background:new"
     id="g979"
     clip-path="url(#clipPath983-2-3)">
    <path
       id="path971"
       d="m 152,44 v 224 h 36.96875 C 261.6174,268 272,257.64309 272,185.0625 v -58.125 C 272,54.356615 261.6174,44 188.96875,44 Z"
       style="opacity:0.4;fill:#000000;fill-opacity:1;stroke:none;stroke-width:2;stroke-linecap:round;stroke-linejoin:round;stroke-miterlimit:4;stroke-dasharray:none;stroke-dashoffset:0;stroke-opacity:1;filter:url(#filter973-6)"
       inkscape:connector-curvature="0" />
    <path
       style="opacity:0.1;fill:#000000;fill-opacity:1;stroke:none;stroke-width:2;stroke-linecap:round;stroke-linejoin:round;stroke-miterlimit:4;stroke-dasharray:none;stroke-dashoffset:0;stroke-opacity:1;filter:url(#filter967-5)"
       d="m 152,44 v 224 h 36.96875 C 261.6174,268 272,257.64309 272,185.0625 v -58.125 C 272,54.356615 261.6174,44 188.96875,44 Z"
       id="path965"
       inkscape:connector-curvature="0" />
    <path
       id="path953"
       d="m 152,44 v 224 h 36.96875 C 261.6174,268 272,257.64309 272,185.0625 v -58.125 C 272,54.356615 261.6174,44 188.96875,44 Z"
       style="opacity:0.1;fill:#000000;fill-opacity:1;stroke:none;stroke-width:2;stroke-linecap:round;stroke-linejoin:round;stroke-miterlimit:4;stroke-dasharray:none;stroke-dashoffset:0;stroke-opacity:1;filter:url(#filter967-5)"
       inkscape:connector-curvature="0" />
  </g>
  <path
     style="color:#000000;display:inline;overflow:visible;visibility:visible;opacity:0.3;fill:#ffffff;fill-opacity:1;fill-rule:nonzero;stroke:none;stroke-width:1;marker:none;enable-background:accumulate"
     d="m 54.805392,17.174465 c -35.296728,0 -39.09487,3.626029 -38.92188,38.994139 v 2 c -0.17299,-35.36811 3.625152,-38.99414 38.92188,-38.99414 H 200.96163 c 35.29673,0 38.92188,3.62561 38.92188,38.99414 v -2 c 0,-35.36853 -3.62515,-38.994139 -38.92188,-38.994139 z"
     id="path931"
     inkscape:connector-curvature="0"
     sodipodi:nodetypes="sccsscsss" />
  <path
     style="color:#000000;display:inline;overflow:visible;visibility:visible;opacity:0.2;fill:#000000;fill-opacity:1;fill-rule:nonzero;stroke:none;stroke-width:1;marker:none;enable-background:accumulate"
     d="m 54.810792,241.17447 c -35.296731,0 -39.094875,-3.62603 -38.921885,-38.99414 v -2 c -0.17299,35.36811 3.625154,38.99414 38.921885,38.99414 H 200.96703 c 35.29673,0 38.92188,-3.62561 38.92188,-38.99414 v 2 c 0,35.36853 -3.62515,38.99414 -38.92188,38.99414 z"
     id="path931-8"
     inkscape:connector-curvature="0"
     sodipodi:nodetypes="sccsscsss" />
</svg>
